svgs/solid/sidebar.svg

<svg xmlns="http://www.w3.org/2000/svg" viewBox="0 0 512 512"><!--! Font Awesome Pro 6.2.0 by @fontawesome - https://fontawesome.com License - https://fontawesome.com/license (Commercial License) Copyright 2022 Fonticons, Inc. --><path d="M0 96C0 60.7 28.7 32 64 32H448c35.3 0 64 28.7 64 64V416c0 35.3-28.7 64-64 64H64c-35.3 0-64-28.7-64-64V96zm224 0V416H448V96H224zM88 96c-13.3 0-24 10.7-24 24s10.7 24 24 24h48c13.3 0 24-10.7 24-24s-10.7-24-24-24H88zM64 216c0 13.3 10.7 24 24 24h48c13.3 0 24-10.7 24-24s-10.7-24-24-24H88c-13.3 0-24 10.7-24 24zm24 72c-13.3 0-24 10.7-24 24s10.7 24 24 24h48c13.3 0 24-10.7 24-24s-10.7-24-24-24H88z"/></svg>

<svg xmlns="http://www.w3.org/2000/svg" viewBox="0 0 512 512"><!--! Font Awesome Pro 6.1.2 by @fontawesome - https://fontawesome.com License - https://fontawesome.com/license (Commercial License) Copyright 2022 Fonticons, Inc. --><path d="M0 96C0 60.65 28.65 32 64 32H448C483.3 32 512 60.65 512 96V416C512 451.3 483.3 480 448 480H64C28.65 480 0 451.3 0 416V96zM224 416H448V96H224V416zM88 96C74.75 96 64 106.7 64 120C64 133.3 74.75 144 88 144H136C149.3 144 160 133.3 160 120C160 106.7 149.3 96 136 96H88zM88 240H136C149.3 240 160 229.3 160 216C160 202.7 149.3 192 136 192H88C74.75 192 64 202.7 64 216C64 229.3 74.75 240 88 240zM88 288C74.75 288 64 298.7 64 312C64 325.3 74.75 336 88 336H136C149.3 336 160 325.3 160 312C160 298.7 149.3 288 136 288H88z"/></svg>
